media/images/mastercard_2.svg

<svg width="31" height="25" viewBox="0 0 31 25" fill="none" xmlns="http://www.w3.org/2000/svg">
<path d="M6.24547 24.863V23.2725C6.25445 23.1388 6.23572 23.0046 6.19051 22.8789C6.1453 22.7532 6.07467 22.6388 5.98331 22.5435C5.89195 22.4482 5.78196 22.3741 5.66067 22.3261C5.53938 22.2781 5.40958 22.2574 5.27991 22.2652C5.11018 22.2537 4.94058 22.2895 4.7888 22.3687C4.63703 22.448 4.50865 22.5679 4.41707 22.7158C4.33359 22.5723 4.21415 22.4547 4.07133 22.3754C3.92851 22.2961 3.76761 22.258 3.60559 22.2652C3.46436 22.2578 3.32371 22.2887 3.19758 22.3547C3.07146 22.4207 2.96424 22.5196 2.88656 22.6416V22.3288H2.35242V24.863H2.89169V23.4687C2.88022 23.382 2.88744 23.2938 2.91283 23.2104C2.93822 23.1269 2.98115 23.0503 3.03856 22.986C3.09597 22.9216 3.16644 22.8712 3.24493 22.8383C3.32342 22.8053 3.40799 22.7907 3.4926 22.7954C3.84698 22.7954 4.02674 23.0339 4.02674 23.4634V24.8736H4.56601V23.4687C4.55501 23.3821 4.56256 23.2941 4.58812 23.2109C4.61368 23.1276 4.65664 23.0512 4.71395 22.987C4.77126 22.9228 4.84154 22.8723 4.91981 22.8392C4.99808 22.8061 5.08243 22.7911 5.16692 22.7954C5.53157 22.7954 5.7062 23.0339 5.7062 23.4634V24.8736L6.24547 24.863ZM14.2242 22.3288H13.3459V21.5601H12.8067V22.3288H12.3187V22.8325H12.8169V23.9988C12.8169 24.5873 13.0378 24.9372 13.6695 24.9372C13.9055 24.938 14.1369 24.8701 14.3372 24.7411L14.1831 24.2692C14.0399 24.3574 13.8773 24.4067 13.7106 24.4124C13.4538 24.4124 13.3562 24.2427 13.3562 23.9882V22.8325H14.2293L14.2242 22.3288ZM18.7798 22.2652C18.6495 22.2613 18.5207 22.2936 18.4068 22.359C18.2929 22.4243 18.1982 22.5201 18.1326 22.6363V22.3288H17.6036V24.863H18.1378V23.4422C18.1378 23.0233 18.3124 22.7901 18.6514 22.7901C18.7656 22.7885 18.8791 22.8101 18.9852 22.8537L19.1496 22.3235C19.0276 22.2785 18.8991 22.2552 18.7695 22.2546L18.7798 22.2652ZM11.8925 22.5303C11.5901 22.3447 11.2425 22.2527 10.8909 22.2652C10.2695 22.2652 9.86375 22.5727 9.86375 23.0764C9.86375 23.4899 10.1616 23.7444 10.7112 23.8239L10.968 23.861C11.2607 23.9034 11.3994 23.9829 11.3994 24.1261C11.3994 24.3222 11.2042 24.4336 10.8396 24.4336C10.5463 24.4423 10.2586 24.349 10.023 24.1685L9.76617 24.5979C10.0773 24.8222 10.45 24.9374 10.8293 24.9266C11.5381 24.9266 11.949 24.582 11.949 24.0996C11.949 23.6171 11.6254 23.421 11.0912 23.3414L10.8344 23.3043C10.6033 23.2725 10.4184 23.2248 10.4184 23.0552C10.4184 22.8855 10.5931 22.7583 10.8858 22.7583C11.1564 22.7615 11.4216 22.8363 11.6562 22.9756L11.8925 22.5303ZM26.1987 22.2652C26.0684 22.2613 25.9396 22.2936 25.8257 22.359C25.7118 22.4243 25.6171 22.5201 25.5515 22.6363V22.3288H25.0225V24.863H25.5567V23.4422C25.5567 23.0233 25.7313 22.7901 26.0703 22.7901C26.1845 22.7885 26.2979 22.8101 26.4041 22.8537L26.5685 22.3235C26.4465 22.2785 26.3179 22.2552 26.1884 22.2546L26.1987 22.2652ZM19.3165 23.5906C19.3101 23.7687 19.3399 23.9462 19.4038 24.1117C19.4677 24.2773 19.5644 24.4272 19.6877 24.552C19.8109 24.6767 19.9581 24.7736 20.1197 24.8363C20.2813 24.8989 20.4538 24.9261 20.6261 24.916C20.9469 24.9329 21.262 24.825 21.5095 24.6138L21.2527 24.1685C21.0681 24.3138 20.8429 24.3938 20.6107 24.3965C20.4133 24.38 20.2291 24.2874 20.0948 24.1371C19.9605 23.9868 19.886 23.7898 19.886 23.5853C19.886 23.3808 19.9605 23.1839 20.0948 23.0336C20.2291 22.8833 20.4133 22.7907 20.6107 22.7742C20.8429 22.7768 21.0681 22.8568 21.2527 23.0021L21.5095 22.5568C21.262 22.3456 20.9469 22.2378 20.6261 22.2546C20.4538 22.2445 20.2813 22.2717 20.1197 22.3344C19.9581 22.3971 19.8109 22.4939 19.6877 22.6186C19.5644 22.7434 19.4677 22.8933 19.4038 23.0589C19.3399 23.2244 19.3101 23.4019 19.3165 23.58V23.5906ZM24.3189 23.5906V22.3288H23.7848V22.6363C23.6941 22.5158 23.5769 22.4194 23.4429 22.3548C23.309 22.2903 23.1621 22.2596 23.0144 22.2652C22.6738 22.2652 22.3472 22.4048 22.1065 22.6534C21.8657 22.902 21.7304 23.2391 21.7304 23.5906C21.7304 23.9421 21.8657 24.2793 22.1065 24.5278C22.3472 24.7764 22.6738 24.916 23.0144 24.916C23.1621 24.9216 23.309 24.8909 23.4429 24.8264C23.5769 24.7619 23.6941 24.6654 23.7848 24.5449V24.8524H24.3189V23.5906ZM22.3313 23.5906C22.3398 23.4414 22.3904 23.2981 22.4768 23.1782C22.5633 23.0584 22.6818 22.9672 22.8178 22.916C22.9538 22.8648 23.1013 22.8557 23.2422 22.89C23.3831 22.9242 23.5112 23.0003 23.6108 23.1087C23.7104 23.2172 23.7771 23.3533 23.8026 23.5004C23.8282 23.6475 23.8115 23.7991 23.7547 23.9365C23.6978 24.0739 23.6033 24.1912 23.4827 24.2739C23.3621 24.3565 23.2208 24.401 23.076 24.4018C22.9743 24.4031 22.8735 24.3827 22.7798 24.3418C22.6861 24.301 22.6017 24.2406 22.5317 24.1644C22.4618 24.0882 22.4079 23.9979 22.3734 23.8991C22.3389 23.8004 22.3245 23.6954 22.3313 23.5906ZM15.8857 22.2652C15.5451 22.2701 15.2204 22.4145 14.983 22.6665C14.7456 22.9186 14.6149 23.2577 14.6196 23.6092C14.6244 23.9607 14.7643 24.2959 15.0084 24.5409C15.2526 24.786 15.5811 24.9209 15.9216 24.916C16.2911 24.9356 16.6544 24.8128 16.9411 24.5714L16.6843 24.1632C16.4815 24.3311 16.2303 24.4243 15.9704 24.4283C15.7938 24.4439 15.6183 24.3879 15.4812 24.2721C15.344 24.1562 15.256 23.9897 15.236 23.808H17.0592C17.0592 23.7391 17.0592 23.6701 17.0592 23.5959C17.0592 22.8007 16.5816 22.2705 15.8934 22.2705L15.8857 22.2652ZM15.8857 22.7583C15.9656 22.7565 16.0451 22.771 16.1196 22.801C16.1941 22.8309 16.2621 22.8757 16.3198 22.9329C16.3775 22.99 16.4238 23.0583 16.4559 23.1338C16.488 23.2094 16.5054 23.2907 16.5071 23.3732H15.2231C15.2324 23.2031 15.3059 23.0434 15.4278 22.9285C15.5497 22.8136 15.7104 22.7524 15.8754 22.7583H15.8857ZM29.2674 23.5959V21.3109H28.7538V22.6363C28.6631 22.5158 28.5459 22.4194 28.412 22.3548C28.278 22.2903 28.1311 22.2596 27.9834 22.2652C27.6429 22.2652 27.3163 22.4048 27.0755 22.6534C26.8347 22.902 26.6994 23.2391 26.6994 23.5906C26.6994 23.9421 26.8347 24.2793 27.0755 24.5278C27.3163 24.7764 27.6429 24.916 27.9834 24.916C28.1311 24.9216 28.278 24.8909 28.412 24.8264C28.5459 24.7619 28.6631 24.6654 28.7538 24.5449V24.8524H29.2674V23.5959ZM30.1585 24.4945C30.1919 24.4941 30.225 24.5004 30.2561 24.5131C30.2856 24.5255 30.3126 24.5435 30.3357 24.5661C30.3582 24.589 30.3765 24.6159 30.3896 24.6456C30.4026 24.6766 30.4093 24.71 30.4093 24.7437C30.4093 24.7775 30.4026 24.8108 30.3896 24.8418C30.3765 24.8715 30.3582 24.8985 30.3357 24.9213C30.3126 24.9439 30.2856 24.9619 30.2561 24.9743C30.2253 24.9883 30.1921 24.9956 30.1585 24.9955C30.1098 24.9952 30.0622 24.9805 30.0213 24.9533C29.9804 24.9261 29.9478 24.8874 29.9274 24.8418C29.9145 24.8108 29.9079 24.7774 29.9079 24.7437C29.9079 24.71 29.9145 24.6766 29.9274 24.6456C29.9404 24.6159 29.9587 24.589 29.9813 24.5661C30.0044 24.5435 30.0314 24.5255 30.0609 24.5131C30.0943 24.4994 30.1302 24.493 30.1662 24.4945H30.1585ZM30.1585 24.9425C30.1841 24.9427 30.2095 24.9373 30.233 24.9266C30.255 24.9164 30.2751 24.9021 30.292 24.8842C30.3241 24.848 30.342 24.8007 30.342 24.7517C30.342 24.7026 30.3241 24.6553 30.292 24.6191C30.2751 24.6012 30.2551 24.5868 30.233 24.5767C30.2095 24.5661 30.1841 24.5607 30.1585 24.5608C30.1329 24.561 30.1076 24.5664 30.084 24.5767C30.0609 24.5865 30.04 24.6009 30.0224 24.6191C29.9903 24.6553 29.9724 24.7026 29.9724 24.7517C29.9724 24.8007 29.9903 24.848 30.0224 24.8842C30.04 24.9024 30.061 24.9168 30.084 24.9266C30.1099 24.9382 30.138 24.9436 30.1662 24.9425H30.1585ZM30.1739 24.6271C30.1979 24.6259 30.2215 24.6334 30.2407 24.6483C30.2485 24.655 30.2547 24.6636 30.2587 24.6732C30.2628 24.6829 30.2645 24.6935 30.2638 24.704C30.2641 24.7128 30.2627 24.7216 30.2596 24.7298C30.2565 24.738 30.2518 24.7454 30.2458 24.7517C30.2309 24.7656 30.2119 24.774 30.1919 24.7755L30.2663 24.863H30.2073L30.1379 24.7755H30.1148V24.863H30.066V24.6297L30.1739 24.6271ZM30.1174 24.6721V24.7358H30.1739C30.1839 24.7389 30.1947 24.7389 30.2047 24.7358C30.2065 24.7321 30.2075 24.728 30.2075 24.7238C30.2075 24.7197 30.2065 24.7156 30.2047 24.7119C30.2065 24.7082 30.2075 24.7041 30.2075 24.7C30.2075 24.6958 30.2065 24.6918 30.2047 24.6881C30.1947 24.685 30.1839 24.685 30.1739 24.6881L30.1174 24.6721ZM27.2926 23.5959C27.3011 23.4467 27.3517 23.3034 27.4382 23.1835C27.5246 23.0637 27.6431 22.9725 27.7791 22.9213C27.9151 22.8701 28.0626 22.861 28.2035 22.8953C28.3444 22.9295 28.4726 23.0056 28.5721 23.114C28.6717 23.2225 28.7384 23.3586 28.764 23.5057C28.7895 23.6528 28.7729 23.8044 28.716 23.9418C28.6592 24.0792 28.5646 24.1965 28.4441 24.2792C28.3235 24.3618 28.1821 24.4063 28.0373 24.4071C27.9357 24.4084 27.8348 24.388 27.7411 24.3471C27.6475 24.3063 27.563 24.2459 27.4931 24.1697C27.4231 24.0935 27.3692 24.0032 27.3347 23.9044C27.3002 23.8057 27.2859 23.7007 27.2926 23.5959ZM9.25771 23.5959V22.3288H8.72357V22.6363C8.63286 22.5158 8.5157 22.4194 8.38175 22.3548C8.24779 22.2903 8.1009 22.2596 7.95318 22.2652C7.61264 22.2652 7.28605 22.4048 7.04526 22.6534C6.80447 22.902 6.66919 23.2391 6.66919 23.5906C6.66919 23.9421 6.80447 24.2793 7.04526 24.5278C7.28605 24.7764 7.61264 24.916 7.95318 24.916C8.1009 24.9216 8.24779 24.8909 8.38175 24.8264C8.5157 24.7619 8.63286 24.6654 8.72357 24.5449V24.8524H9.25771V23.5959ZM7.2701 23.5959C7.27861 23.4467 7.32921 23.3034 7.41564 23.1835C7.50208 23.0637 7.62059 22.9725 7.75658 22.9213C7.89257 22.8701 8.04011 22.861 8.18101 22.8953C8.32192 22.9295 8.45005 23.0056 8.54962 23.114C8.6492 23.2225 8.71588 23.3586 8.74144 23.5057C8.767 23.6528 8.75033 23.8044 8.69349 23.9418C8.63665 24.0792 8.54212 24.1965 8.42153 24.2792C8.30094 24.3618 8.15957 24.4063 8.01481 24.4071C7.9127 24.4091 7.81129 24.3893 7.71702 24.3488C7.62274 24.3082 7.53765 24.2479 7.46714 24.1716C7.39664 24.0954 7.34226 24.0048 7.30746 23.9057C7.27265 23.8066 7.25818 23.7011 7.26496 23.5959H7.2701Z" fill="#231F20"/>
<path d="M19.8047 3.0177H11.7155V18.024H19.8047V3.0177Z" fill="#FF5F00"/>
<path d="M12.2291 10.5233C12.2276 9.07786 12.5448 7.65104 13.1565 6.35086C13.7683 5.05068 14.6586 3.91124 15.7601 3.01881C14.3963 1.91242 12.7584 1.22442 11.0337 1.03344C9.30902 0.842469 7.56707 1.15622 6.00695 1.93885C4.44682 2.72147 3.13147 3.9414 2.21123 5.45919C1.29099 6.97698 0.802979 8.7314 0.802979 10.5219C0.802979 12.3125 1.29099 14.0669 2.21123 15.5847C3.13147 17.1025 4.44682 18.3224 6.00695 19.105C7.56707 19.8877 9.30902 20.2014 11.0337 20.0105C12.7584 19.8195 14.3963 19.1315 15.7601 18.0251C14.659 17.1329 13.7688 15.9939 13.1571 14.6942C12.5453 13.3945 12.228 11.9682 12.2291 10.5233Z" fill="#EB001B"/>
<path d="M30.7172 10.5222C30.7172 12.3129 30.229 14.0674 29.3086 15.5852C28.3882 17.1031 27.0727 18.323 25.5124 19.1055C23.952 19.888 22.2099 20.2016 20.4851 20.0103C18.7603 19.8191 17.1225 19.1307 15.7587 18.024C16.8594 17.131 17.7493 15.9917 18.3612 14.692C18.9731 13.3922 19.2911 11.966 19.2911 10.5209C19.2911 9.07574 18.9731 7.64951 18.3612 6.34975C17.7493 5.04999 16.8594 3.91066 15.7587 3.01772C17.1225 1.91098 18.7603 1.22264 20.4851 1.0314C22.2099 0.840146 23.952 1.1537 25.5124 1.93621C27.0727 2.71873 28.3882 3.93863 29.3086 5.45647C30.229 6.97431 30.7172 8.72885 30.7172 10.5195V10.5222Z" fill="#F79E1B"/>
<path d="M29.8352 16.4337V16.1262H29.9559V16.0626H29.6503V16.1262H29.7812V16.4337H29.8352ZM30.4284 16.4337V16.0626H30.3359L30.2281 16.3277L30.1202 16.0626H30.038V16.4337H30.1048V16.1554L30.205 16.3966H30.2743L30.3744 16.1554V16.4364L30.4284 16.4337Z" fill="#F79E1B"/>
</svg>

<svg width="31" height="25" fill="none" xmlns="http://www.w3.org/2000/svg"><path d="M6.245 24.863v-1.59a.971.971 0 0 0-.262-.73.912.912 0 0 0-.703-.278.926.926 0 0 0-.491.104.961.961 0 0 0-.372.347.914.914 0 0 0-.346-.34.878.878 0 0 0-.465-.11.79.79 0 0 0-.408.089.82.82 0 0 0-.311.287v-.313h-.535v2.534h.54v-1.394a.612.612 0 0 1 .147-.483.574.574 0 0 1 .454-.19c.354 0 .534.238.534.667v1.41h.539V23.47a.615.615 0 0 1 .148-.482.578.578 0 0 1 .453-.192c.365 0 .54.239.54.668v1.41l.538-.01zm7.98-2.534h-.88v-.769h-.538v.769h-.488v.503h.498V24c0 .588.22.938.852.938.236.001.468-.067.668-.196l-.154-.472a.963.963 0 0 1-.472.143c-.257 0-.355-.17-.355-.424v-1.155h.873l-.005-.504zm4.555-.064a.706.706 0 0 0-.373.094.736.736 0 0 0-.274.277v-.307h-.53v2.534h.535v-1.42c0-.42.174-.653.513-.653a.847.847 0 0 1 .334.064l.165-.53a1.113 1.113 0 0 0-.38-.07l.01.011zm-6.888.265a1.792 1.792 0 0 0-1.001-.265c-.621 0-1.027.308-1.027.811 0 .414.298.668.847.748l.257.037c.293.042.431.122.431.265 0 .196-.195.308-.56.308a1.28 1.28 0 0 1-.816-.265l-.257.429c.311.224.684.34 1.063.329.71 0 1.12-.345 1.12-.827 0-.483-.324-.679-.858-.759l-.257-.037c-.23-.031-.416-.08-.416-.249 0-.17.175-.297.468-.297.27.004.536.078.77.218l.236-.446zm14.307-.265a.706.706 0 0 0-.373.094.736.736 0 0 0-.274.277v-.307h-.53v2.534h.535v-1.42c0-.42.174-.653.513-.653a.847.847 0 0 1 .334.064l.165-.53a1.113 1.113 0 0 0-.38-.07l.01.011zm-6.883 1.326a1.316 1.316 0 0 0 .372.961 1.206 1.206 0 0 0 .938.364c.32.017.636-.091.883-.302l-.256-.445c-.185.145-.41.225-.642.227a.78.78 0 0 1-.516-.259.828.828 0 0 1 0-1.103.78.78 0 0 1 .516-.26c.232.003.457.083.642.228l.256-.445a1.258 1.258 0 0 0-.883-.302 1.204 1.204 0 0 0-.506.08 1.263 1.263 0 0 0-.716.724 1.316 1.316 0 0 0-.087.521v.01zm5.003 0v-1.262h-.534v.307a.938.938 0 0 0-.342-.281.908.908 0 0 0-.429-.09c-.34 0-.667.14-.907.388a1.35 1.35 0 0 0-.377.938c0 .351.136.688.377.937.24.248.567.388.907.388a.908.908 0 0 0 .429-.09.937.937 0 0 0 .342-.281v.307h.534v-1.261zm-1.988 0a.782.782 0 0 1 .146-.413.745.745 0 0 1 .34-.262.72.72 0 0 1 .794.193.789.789 0 0 1 .144.828.762.762 0 0 1-.272.337.726.726 0 0 1-.951-.11.766.766 0 0 1-.2-.573zm-6.445-1.326a1.27 1.27 0 0 0-.903.401 1.35 1.35 0 0 0-.363.943c.004.352.144.687.388.932.245.245.573.38.914.375.37.02.732-.103 1.02-.345l-.258-.408a1.147 1.147 0 0 1-.714.265.666.666 0 0 1-.489-.156.709.709 0 0 1-.245-.464h1.823v-.212c0-.795-.477-1.326-1.166-1.326l-.007-.005zm0 .493a.59.59 0 0 1 .434.175.629.629 0 0 1 .187.44h-1.284a.66.66 0 0 1 .205-.445.62.62 0 0 1 .447-.17h.01zm13.381.838V21.31h-.513v1.325a.939.939 0 0 0-.342-.281.908.908 0 0 0-.429-.09c-.34 0-.667.14-.907.388a1.35 1.35 0 0 0-.377.938c0 .351.136.688.377.937.24.248.567.388.907.388a.908.908 0 0 0 .429-.09.938.938 0 0 0 .342-.281v.307h.513v-1.256zm.892.898a.25.25 0 0 1 .177.072.254.254 0 0 1 0 .355.256.256 0 0 1-.178.075.25.25 0 0 1-.137-.043.262.262 0 0 1-.094-.111.255.255 0 0 1 .054-.276.25.25 0 0 1 .185-.072h-.008zm0 .448a.176.176 0 0 0 .133-.058.2.2 0 0 0 0-.265.18.18 0 0 0-.208-.042.188.188 0 0 0-.062.042.2.2 0 0 0 0 .265.189.189 0 0 0 .144.058h-.008zm.015-.315a.1.1 0 0 1 .067.021.067.067 0 0 1 .023.056.067.067 0 0 1-.018.048.089.089 0 0 1-.054.024l.074.087h-.059l-.07-.087h-.022v.087h-.049v-.233l.108-.003zm-.057.045v.064h.057c.01.003.02.003.03 0a.027.027 0 0 0 0-.024.027.027 0 0 0 0-.024.052.052 0 0 0-.03 0l-.057-.016zm-2.824-1.076a.781.781 0 0 1 .145-.413.744.744 0 0 1 .341-.262.72.72 0 0 1 .793.193.789.789 0 0 1 .144.828.762.762 0 0 1-.272.337.727.727 0 0 1-.95-.11.764.764 0 0 1-.201-.573zm-18.035 0v-1.267h-.534v.307a.939.939 0 0 0-.342-.281.908.908 0 0 0-.429-.09c-.34 0-.667.14-.908.388a1.353 1.353 0 0 0 0 1.875c.241.248.568.388.908.388a.908.908 0 0 0 .429-.09.938.938 0 0 0 .342-.281v.307h.534v-1.256zm-1.988 0a.782.782 0 0 1 .146-.413.745.745 0 0 1 .34-.262.72.72 0 0 1 .794.193.789.789 0 0 1 .144.828.761.761 0 0 1-.272.337.726.726 0 0 1-.407.128.718.718 0 0 1-.548-.235.764.764 0 0 1-.202-.576h.005z" fill="#231F20"/><path d="M19.805 3.018h-8.09v15.006h8.09V3.018z" fill="#FF5F00"/><path d="M12.23 10.523a9.783 9.783 0 0 1 .926-4.172 9.477 9.477 0 0 1 2.604-3.332 9.09 9.09 0 0 0-4.726-1.986 8.992 8.992 0 0 0-5.027.906 9.353 9.353 0 0 0-3.796 3.52 9.772 9.772 0 0 0-1.408 5.063c0 1.79.488 3.545 1.408 5.063a9.353 9.353 0 0 0 3.796 3.52 8.993 8.993 0 0 0 5.027.905 9.09 9.09 0 0 0 4.726-1.985 9.477 9.477 0 0 1-2.603-3.33 9.781 9.781 0 0 1-.928-4.172z" fill="#EB001B"/><path d="M30.717 10.522a9.77 9.77 0 0 1-1.408 5.063 9.352 9.352 0 0 1-3.797 3.52 8.993 8.993 0 0 1-5.027.905 9.09 9.09 0 0 1-4.726-1.986 9.494 9.494 0 0 0 2.602-3.332c.612-1.3.93-2.726.93-4.171a9.798 9.798 0 0 0-.93-4.171 9.493 9.493 0 0 0-2.602-3.332 9.09 9.09 0 0 1 4.726-1.987 8.993 8.993 0 0 1 5.027.905 9.353 9.353 0 0 1 3.797 3.52 9.771 9.771 0 0 1 1.408 5.064v.002zm-.882 5.912v-.308h.12v-.063h-.305v.063h.131v.308h.054zm.593 0v-.371h-.092l-.108.265-.108-.265h-.082v.37h.067v-.278l.1.242h.07l.1-.242v.281l.053-.002z" fill="#F79E1B"/></svg>
